X: 29316
T: New Year's Day
R: jig
M: 6/8
K: Dmajor
|:dcA GAE|GAE GAE|dcA GAE|~A3 gfe|
dcA GAE|GAE GED|Edc AGE|1 EDC Ddd:|2 EDC DCA||
|:CDE GFE|FDC B,2 B,|A,CE ABc|dAF G2 B|
AdA {/d}BEE|edc BEE|CDE AGE|1 EDC DCA,:|2 EDC DEF||
G2 B A2 c|dAG FAD|dd/e/f e2 f|dcA BAG|
AdA BEE|edc AEE|CDE AGE|E/E/EF DEF|
GAB ~A3|dAG FAD|def gfe|dcA B2 d|
AdA {/d}BEE|edc AGE|CDE AGE|EDC Ddd||

